source/svgs/bowtie/uE925-chart-pie.svg

<svg xmlns="http://www.w3.org/2000/svg" viewBox="0 0 448 448" enable-background="new 0 0 448 448"><path d="M448 224c0-1.752-.022-3.498-.064-5.24-1.319-57.871-24.473-112.081-65.545-153.152-42.307-42.308-98.559-65.608-158.391-65.608-59.833 0-116.083 23.3-158.392 65.608s-65.608 98.559-65.608 158.392c0 59.832 23.3 116.084 65.608 158.392 42.309 42.308 98.559 65.608 158.392 65.608 59.832 0 116.084-23.3 158.392-65.608 41.071-41.07 64.225-95.282 65.545-153.153.041-1.741.063-3.487.063-5.239zm-224 192c-105.869 0-192-86.131-192-192s86.131-192 192-192c52.935 0 100.935 21.533 135.701 56.299l-135.701 135.701 135.701 135.701c-34.766 34.766-82.766 56.299-135.701 56.299z"/></svg>

<svg xmlns="http://www.w3.org/2000/svg" viewBox="0 0 448 448"><path d="M448 224c0-1.752-.022-3.498-.064-5.24-1.319-57.871-24.473-112.081-65.545-153.152C340.084 23.3 283.832 0 224 0 164.167 0 107.917 23.3 65.608 65.608S0 164.167 0 224c0 59.832 23.3 116.084 65.608 158.392C107.917 424.7 164.167 448 224 448c59.832 0 116.084-23.3 158.392-65.608 41.071-41.07 64.225-95.282 65.545-153.153.041-1.741.063-3.487.063-5.239zM224 416c-105.869 0-192-86.131-192-192S118.131 32 224 32c52.935 0 100.935 21.533 135.701 56.299L224 224l135.701 135.701C324.935 394.467 276.935 416 224 416z"/></svg>
